!!!!SEGMENT: pl-wnifc--6639-n--003_gall-jan-karol--piosneczka-z-ogrodka-op-10-iii.krn
!!!cenid: 18xx:4010
!!!COM: Gall, Jan Karol
!!!COM-rismID: pe50042628
!!!CDT: 1856-1912
!!!CNT: Polish
!!!GTL: Piosneczka z ogródka op. 10
!!!OTL: III.
!!!OMV: 003
!!!PDT: 1888
!!!AGN:
!!!SMS-siglum: PL-Wnifc
!!!SMS-shelfmark: 6639/n
!!!SMS-shelfwork: G
!!!SMS-variant:
!!!SMS-altvar:
!!!NIFC-rismSourceID: 1001149310
!!!NIFC-rismChildID: 1001149315
!!!NIFC-islandoraID: nifc:212943
!!!URL-pdf-islandora: https://repozytorium.nifc.pl/islandora/object/nifc%3A212943/datastream/PDF/view
!!!URL-scan:
!!!ONB-nifc: UWAGA: str. 8-9
!!!AIN: 2 piano 1 vox
!!!key: D-
**kern	**kern	**dynam	**kern	**text
*part3	*part2	*part2	*part1	*part1
*staff3	*staff2	*	*staff1	*staff1
*I"Fortepian.	*I"Fortepian.	*	*I"Głos.	*
*I'pf	*I'pf	*	*I'V	*
*ICklav	*ICklav	*	*ICvox	*
*Ipiano	*Ipiano	*	*Ivox	*
*clefF4	*clefG2	*	*clefG2	*
*k[b-e-a-d-g-]	*k[b-e-a-d-g-]	*	*k[b-e-a-d-g-]	*
*D-:	*D-:	*	*D-:	*
*M2/4	*M2/4	*	*M2/4	*
=1	=1	=1	=1	=1
!	!	!	!LO:TX:a:B:t=Allegretto.	!
N(16DD/LL	8.r	.	8r	.
16AA-/	.	.	.	.
16F/JJ	.	.	8f/	U-
16r	16d-/ 16f	.	.	.
8r	8a-/LN)	.	8a-/	-ro-
8AA-\ 8G-	8c/J 8en	.	8en/	-cza
=2	=2	=2	=2	=2
*	*^	*	*	*
4D-\ 4F	16f/LL	4.d-\	.	16f/LL	ci-
.	16e-/JJ 16g-	.	.	16g-/JJ	.
.	4f/ 4a-	.	.	4a-/	-chut-
8DD-/L	.	.	.	.	.
8D-/J	((8c-X/ 8f 8an	8ryy	.	8an/	-ka
=3	=3	=3	=3	=3	=3
(16GG-\LL	16B-/)) 16g- 16b-	8ryy	.	8r	.
16D-\	16r	.	.	.	.
!	!LO:TUP:a:problem:klamra łukowa	!	!	!LO:TUP:a:problem:klamra łukowa	!
16B-\JJ)	24b-/LL	4g-\	.	24b-\LL	Pios-
.	24ccn/	.	.	24cc\	.
16r	.	.	.	.	.
.	24b-/JJ	.	.	24b-\JJ	.
!	!	!	!	!LO:N:vis=4	!
4r	8ee-/L	.	.	8ee-\	-necz-
.	16dd-/L	8g-\	.	16dd-\	-ka
.	16b-/JJ	.	.	16b-\	zo-
*	*v	*v	*	*	*
!!LO:LB:g=original	!	!	!	!
=4	=4	=4	=4	=4
*^	*	*	*	*
N(>16DD-/LL	4.ryy	8f/ 8a-	.	4.a-/	-gród-
16AA-/	.	.	.	.	.
16F/JJ	.	16r	.	.	.
16r	.	16A-/	.	.	.
8r	.	16d-/N) 16f	.	.	.
.	.	16r	.	.	.
8A-/	(8Dn\	(>8c-X/ 8f	.	8f/	-ka
=5	=5	=5	=5	=5	=5
*	*	*^	*	*	*
8A-/L	8E-\)	8g-/L)	8cn\L	.	4r	.
!	!	!LO:TUP:a:problem:klamra łukowa	!	!	!	!
8F/J	4.AA-\	24dn/L	8c-X\J	.	.	.
.	.	24e-/	.	.	.	.
.	.	24d/JJ	.	.	.	.
4G-/	.	8b-/L	4cn\	.	8r	.
.	.	8en/J	.	.	16en/	Sło-
.	.	.	.	.	16e/	-wi-
*v	*v	*	*	*	*	*
*	*v	*v	*	*	*
=6	=6	=6	=6	=6
(16DD-/LL	16d-/LL 16f	.	16f/LL	-cze-
16AA-/	16b-/JJ	.	16b-\	-mi
16F/	4a-/	.	4a-/	to-
16A-/JJ	.	.	.	.
16d-\) 16f	.	.	.	.
16r	.	.	.	.
8BB-/	8d-/ 8f 8gn	.	8gn/	-ny
!!LO:LB:g=original	!	!	!	!
=7	=7	=7	=7	=7
*	*^	*	*	*
!	!LO:TX:b:B:i:t=poco rall.	!	!	!LO:TX:a:B:i:t=poco rall.	!
4FF/	16a-/LL	4c\ 4f	.	16a-\LL	Nu-
.	16dd-/J	.	.	16dd-\JJ	.
.	8cc/J	.	.	8cc\	-ci
8DD-/L	8f-X/L 8a- 8b-	4ryy	.	8b-\	do
8EE-/J	8d-/J 8gn 8ee-	.	.	8ee-\	uś-
*	*v	*v	*	*	*
=8	=8	=8	=8	=8
N(16AA\LL	8c/ 8a- 8ee-	.	4ee-\	-pio-
16E-\	.	.	.	.
16c\JJ	16r	.	.	.
16r	16e-/	.	.	.
4r;	16a-/N)	.	8a-/	-nej.
.	16r	.	.	.
.	8gn;/	.	8r;	.
=9||	=9||	=9||	=9||	=9||
*k[bnenandngnf#c#g#d#]	*k[bnenandngnf#c#g#d#]	*	*k[bnenandngnf#c#g#d#]	*
!	!LO:TX:b:i:B:t=a tempo	!	!LO:TX:a:i:B:t=a tempo	!
16FF#/LL	8A#X/L 8d# 8b	p	8r	.
16AA#X/J	.	.	.	.
8BB/J	16r	.	4b\	O-
.	16A#/Jk 16d# 16f#	.	.	.
8BBB/L	16c#/LL 16d# 16a	.	.	.
.	16B/ 16d# 16g#	.	.	.
8BB/J	16A#/ 16d# 16f#	.	8B/	-twórz
.	16B/JJ 16d# 16g#	.	.	.
!!LO:LB:g=original	!	!	!	!
=10	=10	=10	=10	=10
*	*^	*	*	*
4EE/	16G#/LL 16e	4.ryy	.	16e/	jas-
.	16B/JJ 16f#	.	.	16f#/	-ne
.	4e/ 4g#	.	.	4g#/	o-
8qAA#X/	.	.	.	.	.
8BB/L	.	.	.	.	.
8BBB/J	8f##X/	8B\ 8d#	.	8f##X/	-czy,
=11	=11	=11	=11	=11	=11
8EE/L	16g#/LL	8B\L	.	8r	.
.	16a/J	.	.	.	.
8EE/J	8f#/J 8g#	8B#X\J	.	8g#/	Rzuć
8GGG#/L	8a\L 8ff#	4ryy	.	8ff#\	sen-
8G#/J 8B#X	16g#\L 16ee	.	.	16ee\	-ne
.	16f#\JJ 16dd#	.	.	16dd#\	ma-
*	*v	*v	*	*	*
=12	=12	=12	=12	=12
.	8qe/	.	.	.
(16CC#/LL	4.ee\	.	4.ee\	-rze-
16GG#/	.	.	.	.
16E/	.	.	.	.
16G#/JJ	.	.	.	.
8c#\) 8e	.	.	.	.
8r	8cc#\	.	8cc#\	-nia
!!LO:PB:g=original	!	!	!	!
=13	=13	=13	=13	=13
16BBB/LL	8dn/L 8g# 8ee	.	8.ee\	Słoń-
16D#X/J	.	.	.	.
8E/J	16r	.	.	.
.	16d/Jk 16g# 16b	.	16b\	-ce
8EE/L	16f#/LL 16g# 16ddn	.	16ddn\LL	wóz
.	16e/ 16g# 16cc#	.	16cc#\JJ	.
8E/J	16d/ 16g# 16b	.	16b\LL	swój
.	16e/JJ 16g# 16cc#	.	16cc#\JJ	.
=14	=14	=14	=14	=14
4AA/	16c#/LL 16a	.	(16a/LL	to-
.	16e/JJ 16b	.	16b/JJ	.
.	4a/ 4cc#	>	4cc#\)	.
8qD#X/	.	.	.	.
8E/L	.	.	.	.
8EE/J	8dn/ 8g# 8b#X	]]	8b#X\	-czy
=15	=15	=15	=15	=15
*	*^	*	*	*
*	*	*^	*	*	*
!	!LO:TX:B:b:i:t=poco ritard.	!	!	!	!LO:TX:B:a:i:t=poco ritard.	!
8AA/L	8a/L 8cc#	[2c#\	8ryy	.	8cc#\	Noc
8FF#/	8a/	.	[<4.d#X/	.	8a/	się
8GG#/	8g#/	.	.	.	8g#/	w dzień
8AA/J	8f#/J	.	.	.	8f#/	prze-
=16	=16	=16	=16	=16	=16	=16
8GG#/L	4.g#/	4c#\]	2d#/]	.	4.g#/	-mie-
8D#/J	.	.	.	.	.	.
4G#\	.	4B#X\	.	.	.	.
.	8f#/	.	.	.	8f#/	-nia.
*	*v	*v	*v	*	*	*
!!LO:LB:g=original	!	!	!	!
=17||	=17||	=17||	=17||	=17||
*k[fncngndnb-e-a-d-g-]	*k[fncngndnb-e-a-d-g-]	*	*k[fncngndnb-e-a-d-g-]	*
!LO:TX:t=P:problem: kasowniki: Fn Cn Gn Dn	!LO:TX:b:i:B:t=a tempo	!	!LO:TX:a:i:B:t=a tempo	!
!	!	!	!LO:TX:t=P:problem: kasowniki: ffn ccn ggn ddn	!
N(16DD-/LL	8.r	mf	8r	.
16AA-/	.	.	.	.
16F/JJ	.	.	8f/	Kwia-
16r	16d-/N) 16f	.	.	.
8r	8a-/L	.	8a-/	-tusz-
8AA-/	8G-/J 8c 8en	.	8en/	-ki
=18	=18	=18	=18	=18
4DD-/	8F/ 8d- 8f	.	8f/	już
.	4d-/ 4f 4b-	.	4b-\	wsta-
4AA-/	.	.	.	.
.	8c/ 8en 8a-	.	8a-/	-ją
=19	=19	=19	=19	=19
N(16DD-/LL	8.r	.	8r	.
16AA-/	.	.	.	.
16F/JJ	.	.	16f/	Na
16r	16d-/N) 16f	.	16f/	sko-
4r	8a-/L	.	8a-/	-pa-
.	16g-/L	.	16g-/LL	-nej
.	16f/JJ	.	16f/JJ	.
=20	=20	=20	=20	=20
N(16GG-/LL	8.b-\	.	4b-\	gle-
16D-/	.	.	.	.
16G-/JJ	.	.	.	.
16r	16B-/N)	.	.	.
4r	8B-/ 8d- 8e-	.	8e-/	-bie
.	8r	.	8r	.
!!LO:LB:g=original	!	!	!	!
=21	=21	=21	=21	=21
*	*^	*	*	*
16GGn/LL	8.r	4ryy	.	8r	.
16E-/	.	.	.	.	.
16Gn/JJ	.	.	.	8e-/	I
16r	[<16d-/ 16e-	.	.	.	.
4r	8dd-/L	4d-\]	<	8dd-\	smut-
.	16cc/L	.	.	16cc\	-nie,
.	16b-/JJ	.	.	16b-\	ach,
=22	=22	=22	=22	=22	=22
*^	*	*	*	*	*
4F/	[2AA-\	8d-/L 8a-	4ryy	.	8ff\L	smut-
.	.	8f/J 8dd-	.	[	8dd-\J	.
4Gn/	.	8cc/L	4en\	.	8cc\	-nie
.	.	8b-/J	.	.	8b-\	wzdy-
*	*	*v	*v	*	*	*
=23	=23	=23	=23	=23	=23
8G-X/	8AA-\]	8c/L 8a-	>	8a-/	-cha-
8r	8ryy	8G-/J 8c 8e-	.	8e-/	-ją
!LO:TX:B:a:i:t=poco ritard.	!	!	!	!LO:TX:B:a:i:t=poco ritard.	!
8rC	8c>\	8B-~>/L 8g-	]	8r	.
8AAA-/	8rc>	16f/L	.	16f/	Że
.	.	16e-/JJ	.	16e-/	nie
*v	*v	*	*	*	*
!!LO:LB:g=original	!	!	!	!
=24	=24	=24	=24	=24
*	*^	*	*	*
8DD-/L	16f/LL	8r	.	16f/	wi-
.	16a-/JJ	.	.	16a-/	-dzą
!	!	!	!	!LO:TX:a:i:B:t=a tempo	!
8DDn/	4a-/	8c-X\L 8f	.	[4.a-/	cie-
8EE-/	.	8cn\J 8g-	.	.	.
!	!LO:TX:b:B:t=a tempo	!	!	!	!
8AAA-/J	32a-/LLL	8rc	.	.	.
.	32b-/	.	.	.	.
.	32a-/	.	.	.	.
.	32g-/JJJ	.	.	.	.
=25	=25	=25	=25	=25	=25
8DD-/L	16f/LL	8r	<	4.a-/]	.
.	16a-/JJ	.	.	.	.
8DDn/	4a-/	8c-X\L 8f	[	.	.
8EE-/	.	8cn\J 8g-	.	.	.
8AAA-/J	32a-/LLL	8rc	.	8a-/	-bie.
.	32b-/	.	.	.	.
.	32a-/	.	.	.	.
.	32g-/JJJ	.	.	.	.
*	*v	*v	*	*	*
=26	=26	=26	=26	=26
*^	*	*	*	*
8r	4DD-\	(16f/LL	>	2r	.
.	.	16a-/	.	.	.
4.AA-/	.	16b-/	.	.	.
.	.	16dd-/JJ	.	.	.
.	4ryy	16cc\LL	.	.	.
.	.	16dd-\JJ	.	.	.
!	!	!LO:TUP:a:problem:klamra łukowa	!	!	!
.	.	24ff\LL	.	.	.
.	.	24ee-\	.	.	.
.	.	24dd-\JJ	.	.	.
*v	*v	*	*	*	*
=27	=27	=27	=27	=27
16DD-/LL	4.aa-;\)	.	2r;	.
16AA-/	.	.	.	.
16F/	.	.	.	.
16A-/JJ	.	.	.	.
8d-;\ 8f	.	.	.	.
8r	8r	]	.	.
==	==	==	==	==
*-	*-	*-	*-	*-
!!!system-decoration: s1{(s2,s3)}
!!!RDF**kern: N = linked
!!!RDF**kern: > = above
!!!RDF**kern: < = below
!!!ENC: Filip Voros
!!!END: 2022-08-06
!!!ENC: Natalia Wrzos
!!!END: 2022-08-29
!!!YEC: Copyright 2022 Narodowy Instytut Fryderyka Chopina (https://polishscores.org)
!!!YEM: License CC-BY-4.0 (https://creativecommons.org/licenses/by/4.0)
